static/assets/template/assets/img/icons/essential/detailed/File_2.svg

<svg height="125" viewBox="0 0 149 125" width="149" xmlns="http://www.w3.org/2000/svg"><g fill="none" fill-rule="evenodd" transform="translate(2 2)"><path d="m116.8 16h-41.1v-15.6h53.9.3c8.4.2 15.2 7.1 15.2 15.6h-17.8" fill="#a8d1ff" fill-rule="nonzero" stroke-linecap="round" stroke-linejoin="round" stroke-width="3"/><path d="m118.9 4.2v101c0 8.6-7 15.6-15.6 15.6h-75.5v-108.6c.2-3.2 1.4-6 3.5-8.2 2.2-2.3 5.4-3.7 8.8-3.7h76c1.6.6 2.8 2.2 2.8 3.9z" fill-rule="nonzero"/><path d="m131 .4c-3.2.2-6.1 1.5-8.2 3.6-.2.2-.4.4-.6.7-1.9 2.2-3.2 5-3.2 8.1v92.4c0 8.6-7 15.6-15.6 15.6h-75.5v-108.6c.2-3.2 1.4-6 3.5-8.2 2.2-2.3 5.4-3.7 8.8-3.7h76.1 14.5c0 .1.1.1.2.1z" fill-rule="nonzero"/><path d="m122.1 4.7c-1.9 2.2-3.2 5-3.2 8.1v1.1c-.2.8-.3 1.7-.3 2.6v87.6c0 8.2-6.6 14.8-14.8 14.8h-71.6v-103c.3-6.8 5.7-11.2 11.7-11.2h72.1z" fill-rule="nonzero"/><path d="m62 .4h53.1 14.5.3c-3.2.2-6.1 1.5-8.2 3.6-2.3 2.3-3.9 5.4-3.9 8.8v74.7" stroke-linecap="round" stroke-linejoin="round" stroke-width="3"/><path d="m51.3.4h.2" stroke-linecap="round" stroke-linejoin="round" stroke-width="3"/><path d="m117.8 100.4v4.8c0 8.6-7 15.6-15.6 15.6h-75.5v-108.6c.2-3.2 1.4-6 3.5-8.2 2.2-2.3 5.4-3.7 8.8-3.7h5.4" stroke-linecap="round" stroke-linejoin="round" stroke-width="3"/><path d="m26.7 109.4v11.5h75.5c8.6 0 15.6-7 15.6-15.6v-1.9" stroke-linecap="round" stroke-linejoin="round" stroke-width="3"/><path d="m70.2 108.6h20c0 3.4 1.4 6.4 3.6 8.6s5.3 3.6 8.6 3.6h-90c-3.4 0-6.4-1.4-8.6-3.6s-3.6-5.3-3.6-8.6h59.2s10.9.1 10.8 0z" fill-rule="nonzero"/><path d="m70.2 108.6h20c0 3.4 1.4 6.4 3.6 8.6s5.3 3.6 8.6 3.6h-90c-3.4 0-6.4-1.4-8.6-3.6s-3.6-5.3-3.6-8.6h59.2s10.9.1 10.8 0z" fill="#a8d1ff" fill-rule="nonzero"/><g stroke-linecap="round" stroke-linejoin="round" stroke-width="3"><path d="m47.2 108.6h12.1s11 .1 10.9 0h20c0 3.4 1.4 6.4 3.6 8.6s5.3 3.6 8.6 3.6h-90c-3.4 0-6.4-1.4-8.6-3.6s-3.6-5.3-3.6-8.6h26.5"/><path d="m36.6 108.6h1.3"/><path d="m81.2 20.1h21.7"/><path d="m42.7 20.1h28.3"/><path d="m61 34.2h28.1"/><path d="m42.7 34.2h9.2"/><path d="m85.5 48.3h17.4"/><path d="m42.7 48.3h34.6"/><path d="m70.1 62.4h19"/><path d="m42.7 62.4h19.2"/><path d="m89.6 76.5h13.3"/><path d="m58.7 76.5h22.3"/><path d="m42.7 76.5h7.8"/><path d="m75.9 90.6h13.2"/><path d="m42.7 90.6h24.5"/></g></g></svg>

<?xml version="1.0" encoding="UTF-8"?>
<svg width="149px" height="125px" viewBox="0 0 149 125" version="1.1" xmlns="http://www.w3.org/2000/svg" xmlns:xlink="http://www.w3.org/1999/xlink">
    <!-- Generator: Sketch 51.2 (57519) - http://www.bohemiancoding.com/sketch -->
    <title>File_2</title>
    <desc>Created with Sketch.</desc>
    <defs></defs>
    <g id="Page-1" stroke="none" stroke-width="1" fill="none" fill-rule="evenodd">
        <g id="File_2" transform="translate(2.000000, 2.000000)">
            <path d="M116.8,16 L75.7,16 L75.7,0.4 L129.6,0.4 C129.7,0.4 129.8,0.4 129.9,0.4 C138.3,0.6 145.1,7.5 145.1,16 L127.3,16" id="Shape" class="stroke-primary" stroke-width="3" fill="#A8D1FF" fill-rule="nonzero" stroke-linecap="round" stroke-linejoin="round"></path>
            <path d="M118.9,4.2 L118.9,105.2 C118.9,113.8 111.9,120.8 103.3,120.8 L27.8,120.8 L27.8,12.2 C28,9 29.2,6.2 31.3,4 C33.5,1.7 36.7,0.3 40.1,0.3 L116.1,0.3 C117.7,0.9 118.9,2.5 118.9,4.2 Z" id="Shape" class="fill-neutral" fill-rule="nonzero"></path>
            <path d="M131,0.4 C127.8,0.6 124.9,1.9 122.8,4 C122.6,4.2 122.4,4.4 122.2,4.7 C120.3,6.9 119,9.7 119,12.8 L119,105.2 C119,113.8 112,120.8 103.4,120.8 L27.9,120.8 L27.9,12.2 C28.1,9 29.3,6.2 31.4,4 C33.6,1.7 36.8,0.3 40.2,0.3 L116.3,0.3 C116.3,0.3 116.3,0.3 116.3,0.3 L130.8,0.3 C130.8,0.4 130.9,0.4 131,0.4 Z" id="Shape" class="fill-neutral" fill-rule="nonzero"></path>
            <path d="M122.1,4.7 C120.2,6.9 118.9,9.7 118.9,12.8 L118.9,13.9 C118.7,14.7 118.6,15.6 118.6,16.5 L118.6,104.1 C118.6,112.3 112,118.9 103.8,118.9 L32.2,118.9 L32.2,15.9 C32.5,9.1 37.9,4.7 43.9,4.7 L116,4.7 C116,4.7 116,4.7 116,4.7 L122.1,4.7 Z" id="Shape" class="fill-primary-100" fill-rule="nonzero"></path>
            <path d="M62,0.4 L115.1,0.4 C115.1,0.4 115.1,0.4 115.1,0.4 L129.6,0.4 C129.7,0.4 129.8,0.4 129.9,0.4 C126.7,0.6 123.8,1.9 121.7,4 C119.4,6.3 117.8,9.4 117.8,12.8 L117.8,87.5" id="Shape" class="stroke-primary" stroke-width="3" stroke-linecap="round" stroke-linejoin="round"></path>
            <path d="M51.3,0.4 L51.5,0.4" id="Shape" class="stroke-primary" stroke-width="3" stroke-linecap="round" stroke-linejoin="round"></path>
            <path d="M117.8,100.4 L117.8,105.2 C117.8,113.8 110.8,120.8 102.2,120.8 L26.7,120.8 L26.7,12.2 C26.9,9 28.1,6.2 30.2,4 C32.4,1.7 35.6,0.3 39,0.3 L44.4,0.3" id="Shape" class="stroke-primary" stroke-width="3" stroke-linecap="round" stroke-linejoin="round"></path>
            <path d="M26.7,109.4 L26.7,120.9 L102.2,120.9 C110.8,120.9 117.8,113.9 117.8,105.3 L117.8,103.4" id="Shape" class="stroke-primary" stroke-width="3" stroke-linecap="round" stroke-linejoin="round"></path>
            <path d="M70.2,108.6 L90.2,108.6 C90.2,112 91.6,115 93.8,117.2 C96,119.4 99.1,120.8 102.4,120.8 L12.4,120.8 C9,120.8 6,119.4 3.8,117.2 C1.6,115 0.2,111.9 0.2,108.6 L59.4,108.6 C59.4,108.6 70.3,108.7 70.2,108.6 Z" id="Shape" class="fill-neutral" fill-rule="nonzero"></path>
            <path d="M70.2,108.6 L90.2,108.6 C90.2,112 91.6,115 93.8,117.2 C96,119.4 99.1,120.8 102.4,120.8 L12.4,120.8 C9,120.8 6,119.4 3.8,117.2 C1.6,115 0.2,111.9 0.2,108.6 L59.4,108.6 C59.4,108.6 70.3,108.7 70.2,108.6 Z" id="Shape" fill="#A8D1FF" fill-rule="nonzero"></path>
            <path d="M47.2,108.6 L59.3,108.6 C59.3,108.6 70.3,108.7 70.2,108.6 L90.2,108.6 C90.2,112 91.6,115 93.8,117.2 C96,119.4 99.1,120.8 102.4,120.8 L12.4,120.8 C9,120.8 6,119.4 3.8,117.2 C1.6,115 0.2,111.9 0.2,108.6 L26.7,108.6" id="Shape" class="stroke-primary" stroke-width="3" stroke-linecap="round" stroke-linejoin="round"></path>
            <path d="M36.6,108.6 L37.9,108.6" id="Shape" class="stroke-primary" stroke-width="3" stroke-linecap="round" stroke-linejoin="round"></path>
            <path d="M81.2,20.1 L102.9,20.1" id="Shape" class="stroke-primary-300" stroke-width="3" stroke-linecap="round" stroke-linejoin="round"></path>
            <path d="M42.7,20.1 L71,20.1" id="Shape" class="stroke-primary-300" stroke-width="3" stroke-linecap="round" stroke-linejoin="round"></path>
            <path d="M61,34.2 L89.1,34.2" id="Shape" class="stroke-primary-300" stroke-width="3" stroke-linecap="round" stroke-linejoin="round"></path>
            <path d="M42.7,34.2 L51.9,34.2" id="Shape" class="stroke-primary-300" stroke-width="3" stroke-linecap="round" stroke-linejoin="round"></path>
            <path d="M85.5,48.3 L102.9,48.3" id="Shape" class="stroke-primary-300" stroke-width="3" stroke-linecap="round" stroke-linejoin="round"></path>
            <path d="M42.7,48.3 L77.3,48.3" id="Shape" class="stroke-primary-300" stroke-width="3" stroke-linecap="round" stroke-linejoin="round"></path>
            <path d="M70.1,62.4 L89.1,62.4" id="Shape" class="stroke-primary-300" stroke-width="3" stroke-linecap="round" stroke-linejoin="round"></path>
            <path d="M42.7,62.4 L61.9,62.4" id="Shape" class="stroke-primary-300" stroke-width="3" stroke-linecap="round" stroke-linejoin="round"></path>
            <path d="M89.6,76.5 L102.9,76.5" id="Shape" class="stroke-primary-300" stroke-width="3" stroke-linecap="round" stroke-linejoin="round"></path>
            <path d="M58.7,76.5 L81,76.5" id="Shape" class="stroke-primary-300" stroke-width="3" stroke-linecap="round" stroke-linejoin="round"></path>
            <path d="M42.7,76.5 L50.5,76.5" id="Shape" class="stroke-primary-300" stroke-width="3" stroke-linecap="round" stroke-linejoin="round"></path>
            <path d="M75.9,90.6 L89.1,90.6" id="Shape" class="stroke-primary-300" stroke-width="3" stroke-linecap="round" stroke-linejoin="round"></path>
            <path d="M42.7,90.6 L67.2,90.6" id="Shape" class="stroke-primary-300" stroke-width="3" stroke-linecap="round" stroke-linejoin="round"></path>
        </g>
    </g>
</svg>
